icons/home-fill-16.svg

<svg width="16" height="16" viewBox="0 0 16 16">
  <path
    d="M6.906 0.383706C7.21634 0.135326 7.602 0 7.9995 0C8.397 0 8.78266 0.135326 9.093 0.383706L14.343 4.58371C14.758 4.9157 15 5.41871 15 5.95071V12.9697C15 13.4338 14.8156 13.8789 14.4874 14.2071C14.1592 14.5353 13.7141 14.7197 13.25 14.7197H10.75C10.5511 14.7197 10.3603 14.6407 10.2197 14.5C10.079 14.3594 10 14.1686 10 13.9697V8.71971H6V13.9697C6 14.1686 5.92098 14.3594 5.78033 14.5C5.63968 14.6407 5.44891 14.7197 5.25 14.7197H2.75C2.28587 14.7197 1.84075 14.5353 1.51256 14.2071C1.18437 13.8789 1 13.4338 1 12.9697V5.94971C1 5.41871 1.242 4.9157 1.657 4.58371L6.906 0.383706Z" />
</svg>

<svg xmlns="http://www.w3.org/2000/svg" width="16" height="16" viewBox="0 0 16 16"><path d="M6.906.384a1.75 1.75 0 0 1 2.187 0l5.25 4.2c.415.332.657.835.657 1.367v7.019a1.75 1.75 0 0 1-1.75 1.75h-2.5a.75.75 0 0 1-.75-.75V8.72H6v5.25a.75.75 0 0 1-.75.75h-2.5A1.75 1.75 0 0 1 1 12.97V5.95c0-.531.242-1.034.657-1.366l5.249-4.2Z"/></svg>
